X: 24130
T: Longford Tinker, The
R: reel
M: 4/4
K: Bminor
B3A B2dB|ABde gfed|~A2FB A2dB|ABde gfed|
eBBA B2dB|ABde gfed|~A2FB A2dB|ABdf gece||
d2fd egfe|dfaf g2fe|d2fd eg~g3|fa~a2 bgec|
d2fd egfe|dfaf g3a|bagf gfed|Bdef gfed||

